_icons/SVG/540-sewaddle.svg

<svg xmlns="http://www.w3.org/2000/svg" viewBox="0 0 32 32"><title>540-sewaddle</title><path d="M12.04952,24.37539C11.36734,30.25348,12.276,32,15.97451,32V24.79856A12.399,12.399,0,0,1,12.04952,24.37539Z" style="fill:#b1e346"/><path d="M9.86989,4.77532c.57922,6.51306-1.16269,8.40771-4.62731,6.8749-1.13236,1.29179-.99638,3.227-.26441,5.46462.27773-1.17276.91669-1.46867,1.93026-.85475.26478-3.63989,4.21611-7.7461,9.06608-7.7461V.01578Z" style="fill:#aadb3d"/><path d="M6.90843,16.26009a4.25979,4.25979,0,0,1,.36234.2412,21.482,21.482,0,0,1,1.937,2.97373c.668-2.00319,3.44245-3.506,6.76679-3.506V8.514C11.12454,8.514,7.17321,12.6202,6.90843,16.26009Z" style="fill:#ffd96c"/><path d="M9.20772,19.475a17.01417,17.01417,0,0,0,2.95378,3.98589c-.04248.3188-.07748.61717-.112.91448a12.399,12.399,0,0,0,3.925.42317V15.969C12.65017,15.969,9.87572,17.47183,9.20772,19.475Z" style="fill:#edeeee"/><path d="M7.27077,16.50129c-1.22789-.92124-1.98288-.69439-2.2926.61355.324,2.92639,3.70183,4.65652,7.18333,6.34607C10.42627,22.10226,8.09912,17.25076,7.27077,16.50129Z" style="fill:#bee758"/><path d="M14.19674,5.57684a2.07581,2.07581,0,1,0,1.77777,3.13231V6.59606A2.06742,2.06742,0,0,0,14.19674,5.57684Z" style="fill:#ffe28a"/><circle cx="11.22487" cy="14.34188" r="1.62716" style="fill:#373f3f"/><circle cx="11.22487" cy="14.34188" r="0.82762" style="fill:#edeeee"/><path d="M13.85786,18.09875l2.11665-1.558V14.17413C12.852,14.17413,12.43837,16.59289,13.85786,18.09875Z" style="fill:#efb43f"/><circle cx="13.00981" cy="25.27749" r="1.59746" style="fill:#e6ab37"/><circle cx="12.80455" cy="28.43879" r="1.3922" style="fill:#e6ab37"/><circle cx="12.80455" cy="30.969" r="0.96637" style="fill:#e6ab37"/><path d="M19.89227,24.35961c.68218,5.87809-.22647,7.62461-3.925,7.62461V24.78278A12.399,12.399,0,0,0,19.89227,24.35961Z" style="fill:#aadb3d"/><path d="M22.07191,4.75954c-.57923,6.51306,1.16268,8.40771,4.6273,6.8749,1.13236,1.29179.99638,3.227.26441,5.46461-.27773-1.17275-.91669-1.46866-1.93026-.85475-.26478-3.63988-4.21611-7.7461-9.06608-7.7461V0Z" style="fill:#a2d336"/><path d="M25.03336,16.2443a4.26075,4.26075,0,0,0-.36233.24121,21.48078,21.48078,0,0,0-1.937,2.97373c-.668-2.00319-3.44245-3.506-6.76679-3.506V8.4982C20.81725,8.4982,24.76858,12.60442,25.03336,16.2443Z" style="fill:#ffd04d"/><path d="M22.73407,19.45924a17.01417,17.01417,0,0,1-2.95378,3.98589c.04249.3188.07748.61716.112.91448a12.399,12.399,0,0,1-3.925.42317V15.95325C19.29162,15.95325,22.06607,17.45605,22.73407,19.45924Z" style="fill:#e3e5e5"/><path d="M24.671,16.48551c1.22788-.92124,1.98287-.6944,2.29259.61354-.324,2.9264-3.70183,4.65653-7.18333,6.34608C21.51552,22.08648,23.84267,17.235,24.671,16.48551Z" style="fill:#b1e346"/><path d="M17.74505,5.56106a2.07581,2.07581,0,1,1-1.77777,3.13231V6.58028A2.06744,2.06744,0,0,1,17.74505,5.56106Z" style="fill:#ffd96c"/><circle cx="20.71692" cy="14.3261" r="1.62716" style="fill:#2b3332"/><circle cx="20.71692" cy="14.3261" r="0.82762" style="fill:#e3e5e5"/><path d="M18.08393,18.083l-2.11665-1.558V14.15835C19.08976,14.15835,19.50342,16.57711,18.08393,18.083Z" style="fill:#e6ab37"/><circle cx="18.93198" cy="25.26171" r="1.59746" style="fill:#dea32f"/><circle cx="19.13725" cy="28.42301" r="1.3922" style="fill:#dea32f"/><circle cx="19.13725" cy="30.95322" r="0.96637" style="fill:#dea32f"/></svg>

<svg xmlns="http://www.w3.org/2000/svg" viewBox="0 0 32 32"><path d="M12.05 24.375c-.683 5.878.226 7.625 3.925 7.625v-7.201a12.399 12.399 0 01-3.925-.424z" fill="#b1e346"/><path d="M9.87 4.775c.58 6.513-1.163 8.408-4.627 6.875-1.133 1.292-.997 3.227-.265 5.465.278-1.173.917-1.469 1.93-.855.265-3.64 4.217-7.746 9.067-7.746V.016z" fill="#aadb3d"/><path d="M6.908 16.26a4.26 4.26 0 01.363.241 21.482 21.482 0 011.937 2.974c.668-2.003 3.442-3.506 6.767-3.506V8.514c-4.85 0-8.802 4.106-9.067 7.746z" fill="#ffd96c"/><path d="M9.208 19.475a17.014 17.014 0 002.954 3.986c-.043.319-.078.617-.113.914a12.399 12.399 0 003.926.424v-8.83c-3.325 0-6.1 1.503-6.767 3.506z" fill="#edeeee"/><path d="M7.27 16.501c-1.227-.921-1.982-.694-2.292.614.324 2.926 3.702 4.656 7.183 6.346-1.735-1.359-4.062-6.21-4.89-6.96z" fill="#bee758"/><path d="M14.197 5.577a2.076 2.076 0 101.778 3.132V6.596a2.067 2.067 0 00-1.778-1.02z" fill="#ffe28a"/><circle cx="11.225" cy="14.342" r="1.627" fill="#373f3f"/><circle cx="11.225" cy="14.342" r=".828" fill="#edeeee"/><path d="M13.858 18.099l2.117-1.558v-2.367c-3.123 0-3.537 2.419-2.117 3.925z" fill="#efb43f"/><circle cx="13.01" cy="25.277" r="1.597" fill="#e6ab37"/><circle cx="12.805" cy="28.439" r="1.392" fill="#e6ab37"/><circle cx="12.805" cy="30.969" r=".966" fill="#e6ab37"/><path d="M19.892 24.36c.682 5.878-.226 7.624-3.925 7.624v-7.201a12.399 12.399 0 003.925-.423z" fill="#aadb3d"/><path d="M22.072 4.76c-.58 6.513 1.163 8.407 4.627 6.874 1.133 1.292.997 3.227.265 5.465-.278-1.173-.917-1.469-1.93-.855-.265-3.64-4.217-7.746-9.067-7.746V0z" fill="#a2d336"/><path d="M25.033 16.244a4.26 4.26 0 00-.362.242 21.48 21.48 0 00-1.937 2.973c-.668-2.003-3.442-3.506-6.767-3.506V8.498c4.85 0 8.802 4.106 9.066 7.746z" fill="#ffd04d"/><path d="M22.734 19.46a17.014 17.014 0 01-2.954 3.985c.043.319.078.617.112.915a12.399 12.399 0 01-3.925.423v-8.83c3.325 0 6.1 1.503 6.767 3.506z" fill="#e3e5e5"/><path d="M24.671 16.486c1.228-.922 1.983-.695 2.293.613-.324 2.926-3.702 4.657-7.184 6.346 1.736-1.359 4.063-6.21 4.891-6.96z" fill="#b1e346"/><path d="M17.745 5.561a2.076 2.076 0 11-1.778 3.132V6.58a2.067 2.067 0 011.778-1.019z" fill="#ffd96c"/><circle cx="20.717" cy="14.326" r="1.627" fill="#2b3332"/><circle cx="20.717" cy="14.326" r=".828" fill="#e3e5e5"/><path d="M18.084 18.083l-2.117-1.558v-2.367c3.123 0 3.536 2.42 2.117 3.925z" fill="#e6ab37"/><circle cx="18.932" cy="25.262" r="1.597" fill="#dea32f"/><circle cx="19.137" cy="28.423" r="1.392" fill="#dea32f"/><circle cx="19.137" cy="30.953" r=".966" fill="#dea32f"/></svg>
